X: 1398
T: Mâhur Aranağme (Nîmsofyan)
C: ?
O: Turkey
F: http://compmusic.upf.edu/node/140
N: mahur--aranagme--nimsofyan--1--
N: makam= mahur
N: form= aranagme
N: usul= nimsofyan = 2/4
M: 2/4
L: 1/16
K: C ^9/8f   
Q: 1/4=90
%%MIDI tuningsystem comma53
b4 agfe  | d8  | b4 agfe  | d8  | d2dd e2c2  | B8  | \
w:  ARANAĞME  |   |   |   |   |   | 
d2dd e2c2  | 
w:   | 
B8  | d2dd e2c2  | A8  | z2d2 e2f2  | g2f2 e2d2  | \
w:   |   |   |   |   | 
b4 agfe  | d8  | 
w:  ARANAĞME  |   | 
b4 agfe  | d8  | d2dd e2c2  | B8  | d2dd e2c2  | B8  | \
w:   |   |   |   |   |   | 
d2dd e2c2  | 
w:   | 
A8  | z2d2 d2f2  | g2d2 g4  | |


